icons/unity-panel/22x22/panel/krb-no-valid-ticket.svg

<?xml version="1.0" encoding="UTF-8" standalone="no"?>
<svg
   viewBox="0 0 14 22"
   version="1.1"
   id="svg6"
   sodipodi:docname="krb-no-valid-ticket.svg"
   inkscape:version="1.1.1 (3bf5ae0d25, 2021-09-20)"
   xmlns:inkscape="http://www.inkscape.org/namespaces/inkscape"
   xmlns:sodipodi="http://sodipodi.sourceforge.net/DTD/sodipodi-0.dtd"
   xmlns="http://www.w3.org/2000/svg"
   xmlns:svg="http://www.w3.org/2000/svg">
  <defs
     id="defs10" />
  <sodipodi:namedview
     id="namedview8"
     pagecolor="#ffffff"
     bordercolor="#666666"
     borderopacity="1.0"
     inkscape:pageshadow="2"
     inkscape:pageopacity="0.0"
     inkscape:pagecheckerboard="0"
     showgrid="true"
     inkscape:zoom="24.181818"
     inkscape:cx="7.0093985"
     inkscape:cy="11"
     inkscape:window-width="1852"
     inkscape:window-height="1043"
     inkscape:window-x="1434"
     inkscape:window-y="0"
     inkscape:window-maximized="1"
     inkscape:current-layer="svg6">
    <inkscape:grid
       type="xygrid"
       id="grid933" />
  </sodipodi:namedview>
  <path
     class="error"
     d="M 10.5,9 A 3.5,3.5 0 0 0 7,12.5 3.5,3.5 0 0 0 10.5,16 3.5,3.5 0 0 0 14,12.5 3.5,3.5 0 0 0 10.5,9 Z M 10,10 h 1 v 1.167 c 0,0.349 -0.016,0.668 -0.047,0.958 -0.031,0.29 -0.069,0.58 -0.115,0.875 H 10.172 A 12.898,12.898 0 0 1 10.047,12.125 9.146,9.146 0 0 1 10,11.167 Z m 0.5,4 A 0.5,0.5 0 0 1 11,14.5 0.5,0.5 0 0 1 10.5,15 0.5,0.5 0 0 1 10,14.5 0.5,0.5 0 0 1 10.5,14 Z"
     color="#000000"
     fill="#f22c42"
     id="path4" />
  <path
     id="path2-3"
     style="font-variant-ligatures:normal;font-variant-position:normal;font-variant-caps:normal;font-variant-numeric:normal;font-variant-alternates:normal;font-feature-settings:normal;text-indent:0;text-decoration-line:none;text-decoration-style:solid;text-decoration-color:#000000;text-transform:none;text-orientation:mixed;shape-padding:0;isolation:auto;mix-blend-mode:normal;fill:#ffffff"
     d="M 5.3574219,3 C 4.3284219,3.012 3.5727815,2.9685937 2.9257812,3.3085938 2.6017813,3.4785935 2.3354063,3.776625 2.1914062,4.140625 2.0484065,4.504625 2,4.9253125 2,5.4453125 v 3.1113281 c 0,0.52 0.048406,0.9406876 0.1914062,1.3046875 0.1440001,0.3639999 0.4093752,0.6600779 0.734375,0.8300779 0.5630002,0.296 1.2411719,0.296782 2.0761719,0.300782 L 5.0058594,12.9375 5.5,13.5 5,14 5.5,14.5 5,15 l 0.5,0.5 -1,1 L 7,19 9,17 V 16.9707 C 8.6200057,16.926434 8.2472074,16.833891 7.890625,16.695312 L 7,17.585938 6,16.5 V 16 16 11 H 6.00195 L 6,10 H 5.3691406 C 4.3341406,9.989 3.659625,9.9466405 3.390625,9.8066406 3.257625,9.7366406 3.1940469,9.6721875 3.1230469,9.4921875 3.0530469,9.3121875 3,9.0076406 3,8.5566406 V 5.4453125 c 0,-0.451 0.052047,-0.7585 0.1230469,-0.9375 0.071,-0.18 0.1335781,-0.2415 0.2675781,-0.3125 C 3.657625,4.0553125 4.3342813,4.012 5.3632812,4 h 3.2734376 c 1.0289997,0.012 1.7046562,0.055313 1.9726562,0.1953125 0.134,0.07 0.196578,0.1325 0.267578,0.3125 0.071,0.18 0.123047,0.4865 0.123047,0.9375 v 2.8125 c 0.350696,0.1242789 0.684624,0.2915713 0.994141,0.4980469 C 11.995966,8.6899234 12,8.6260706 12,8.5566406 V 5.4453125 c 0,-0.52 -0.04841,-0.9406875 -0.191406,-1.3046875 -0.144,-0.364 -0.409375,-0.6620315 -0.734375,-0.8320312 C 10.426219,2.9685936 9.6715781,3.01 8.6425781,3 Z M 7,5 C 6.4477153,5 6,5.4477153 6,6 6,6.5522847 6.4477153,7 7,7 7.5522847,7 8,6.5522847 8,6 8,5.4477153 7.5522847,5 7,5 Z"
     sodipodi:nodetypes="cccssccccccccccccccccccccccccssccccsssccssccccsssss" />
</svg>

<svg version="1.1" viewBox="0 0 14 22" xmlns="http://www.w3.org/2000/svg">
 <path class="error" d="m10.5 9a3.5 3.5 0 0 0-3.5 3.5 3.5 3.5 0 0 0 3.5 3.5 3.5 3.5 0 0 0 3.5-3.5 3.5 3.5 0 0 0-3.5-3.5zm-0.5 1h1v1.167c0 0.349-0.016 0.668-0.047 0.958s-0.069 0.58-0.115 0.875h-0.666a12.898 12.898 0 0 1-0.125-0.875 9.146 9.146 0 0 1-0.047-0.958zm0.5 4a0.5 0.5 0 0 1 0.5 0.5 0.5 0.5 0 0 1-0.5 0.5 0.5 0.5 0 0 1-0.5-0.5 0.5 0.5 0 0 1 0.5-0.5z" color="#000000" fill="#f22c42"/>
 <path d="m5.3574 3c-1.029 0.012-1.7846-0.031406-2.4316 0.30859-0.324 0.17-0.59037 0.46803-0.73438 0.83203-0.143 0.364-0.19141 0.78469-0.19141 1.3047v3.1113c0 0.52 0.048406 0.94069 0.19141 1.3047 0.144 0.364 0.40938 0.66008 0.73438 0.83008 0.563 0.296 1.2412 0.29678 2.0762 0.30078l0.0039063 1.9453 0.49414 0.5625-0.5 0.5 0.5 0.5-0.5 0.5 0.5 0.5-1 1 2.5 2.5 2-2v-0.0293c-0.37999-0.044266-0.75279-0.13681-1.1094-0.27539l-0.89062 0.89063-1-1.0859v-5.5h0.00195l-0.00195-1h-0.63086c-1.035-0.011-1.7095-0.05336-1.9785-0.19336-0.133-0.07-0.19658-0.13445-0.26758-0.31445-0.07-0.18-0.12305-0.48455-0.12305-0.93555v-3.1113c0-0.451 0.052047-0.7585 0.12305-0.9375 0.071-0.18 0.13358-0.2415 0.26758-0.3125 0.267-0.14 0.94366-0.18331 1.9727-0.19531h3.2734c1.029 0.012 1.7047 0.055313 1.9727 0.19531 0.134 0.07 0.19658 0.1325 0.26758 0.3125s0.12305 0.4865 0.12305 0.9375v2.8125c0.3507 0.12428 0.68462 0.29157 0.99414 0.49805 0.001825-0.065936 0.005859-0.12979 0.005859-0.19922v-3.1113c0-0.52-0.04841-0.94069-0.19141-1.3047-0.144-0.364-0.40938-0.66203-0.73438-0.83203-0.648-0.34-1.4026-0.29859-2.4316-0.30859zm1.6426 2c-0.55228 0-1 0.44772-1 1s0.44772 1 1 1 1-0.44772 1-1-0.44772-1-1-1z" fill="#fff" style="font-feature-settings:normal;font-variant-alternates:normal;font-variant-caps:normal;font-variant-ligatures:normal;font-variant-numeric:normal;font-variant-position:normal;isolation:auto;mix-blend-mode:normal;shape-padding:0;text-decoration-color:#000000;text-decoration-line:none;text-decoration-style:solid;text-indent:0;text-orientation:mixed;text-transform:none"/>
</svg>
